icon-themes/breeze_svg/cmd/sc_handoutmode.svg

<svg viewBox="0 0 16 16" xmlns="http://www.w3.org/2000/svg"><path d="m3 1v13h4v-1h-3v-11h8v5h1v-6zm2 2v4h6v-4zm1 1h4v2h-4zm-1 4v4h2v-1h-1v-2h4v-1zm7 0-4 4v1 1h2l4-4zm-.3125 1.6875.59375.59375c-1.033385 1.022697-2.088239 2.118227-2.96875 3l-.59375-.59375c.9826095-1.006947 1.97392-2.005202 2.96875-3z" fill="#1d99f3"/></svg>

<svg xmlns="http://www.w3.org/2000/svg" viewBox="0 0 16 16">
 <path 
     style="fill:#1d99f3" 
     d="M 3 1 L 3 14 L 7 14 L 7 13 L 4 13 L 4 2 L 12 2 L 12 7 L 13 7 L 13 1 L 3 1 z M 5 3 L 5 7 L 11 7 L 11 3 L 5 3 z M 6 4 L 10 4 L 10 6 L 6 6 L 6 4 z M 5 8 L 5 12 L 7 12 L 7 11 L 6 11 L 6 9 L 10 9 L 10 8 L 5 8 z M 12 8 L 8 12 L 8 13 L 8 14 L 10 14 L 14 10 L 12 8 z M 11.6875 9.6875 L 12.28125 10.28125 C 11.247865 11.303947 10.193011 12.399477 9.3125 13.28125 L 8.71875 12.6875 C 9.7013595 11.680553 10.69267 10.682298 11.6875 9.6875 z "
     />
 </svg>
